X: 1
T: the Flower o' the Quern
C: J.S.Skinner
R: air
S: handwritten MS from Rich Armstrong
M: 4/4
L: 1/8
K: A
"E7"E2 \
| "A"A2 A2 G2 FE | "D"d2 d2 "A"c3 e | e2 cB "F#m"A2 Bc | "Bm"B4- "E7"B2 E2 \
| "A"A2 A2 G2 FE | "D"d2 d2 "A"c3 e | "Bm"ed FB "D"A2 "E7"G2 | "A"A6 ||
"A7"A2 \
| "D"d2 d2 d2 ef | "A"e3 c e2 af | e2 cB "F#m"A2 Bc | "Bm"B4- "E7"B2 E2 \
| "A"A2 A2 G2 FE | "D"d2 d2 "A"c3 e | "Bm"ed FB "A"A2 "E7"B2 | "A"A6 |]
